X:1
T:American Pie
C:Don McLean
Z:All Rights Reserved
L:1/8
M:4/4
K:G
V:1 treble nm="Voice"
%%MIDI program 52
V:1
 D |"G" d2"D/F#" d2"Em7" d/B/ G3 |"Am" c<A cc"C" B<A G<F |"Em" GF z G/F/ GF"D" D2- | D2 z2 z2 z D | %5
w: A|long, long time a- go|I can still re- mem- ber how that|mu- sic used to make me smile.|* And|
w: |||||
w: |||||
w: |||||
"G" dd/d/"D/F#" dd"Em7" e G2 z/ G/ |"Am" A>B c<B"C" A>Bc>A |"Em" GE G<E"C" GE- EG/B/ |"D" A6 z2 | %9
w: I knew if I had my chance that|I could make those peo- ple dance and|may- be they['d be hap- py- * for a|while.|
w: ||||
w: ||||
w: ||||
"Em" z E B/B/B/B/"Am" cB G/A/ z |"Em" B/BB/ B<B"Am" c>B G/E/ z |"C" GG"G/B"G>F"Am" EG z A | %12
w: But Feb- ru- ar- y made me shiv- er|with ev- 'ry pa- per I'd de- liv- er.|Bad news on the door- step I|
w: |||
w: |||
w: |||
"C" G>AB>e"D" dB z B |"G" ed/d/"G/F#" d/B/c/B/"Em" G>F E2 |"Am7" A>B (c/B/)B"D" A<BA z | %15
w: could- n't take one more step I|Can't re- mem * ber if I cried when I|read a- bout- * his wid- owed bride,|
w: |||
w: |||
w: |||
"G" BB"D/F#"BB"Em" B>B (A/G/E/)G/ |"C" E3 G"D7" c2 B2 |"G" G4-"C" G4- |"G" G4- G2 z D |: %19
w: Some- thing touched me deep in side- * * the|day the mu- sic|died. *|* * So|
w: ||||
w: ||||
w: ||||
S"G" d4"C" c2 cB |"G" BAG"D"A- A d2 d |"G" dddc"C" cccB |"G" BAGD-"D" D2 z d |"G" d d2 c-"C" cccB | %24
w: bye bye, Miss A-|mer- i- can Pie * Drove my|Chev- y to the lev- ee but the|lev- ee was dry. * Them|good ole boys * were drink- in'|
w: |||||
w: |||||
w: |||||
"G" BAG"D"A- A z BA!dacoda! |O"Em" GE GE/G/- GF/E/- E2 |"A7" A2 z2 z4 |"Em" GE GE/G/- GF/E/- E2 | %28
w: whis- key and rye * Sing in'|this- 'll be the day * that I *|die,|This- 'll be the day * that I *|
w: ||||
w: ||||
w: ||||
"D7" (F/E/D- D6) | z8 x8 ||"G" z2 de- e d2 d |"Am" d c2 (B A)ABc- |"C" c2 B2 c2 B2 | %33
w: die. * * *||Did you * write the|book of love * And do you|* have faith in|
w: ||Now for ten years we've|been on our own, And moss grows|* fat on a|
w: ||Hel- ter skel- ter in|a sum- er swel ter, The birds|off with a fall-|
w: ||And there * we were|all in one place, a * gen|* er- a- tion|
"Am" c2 B(G A2) z2 |"Em" z2 GG G2 FG- |"D" G2 FD- D2 z2 | z4 z2 ed |"G" (e d2) d"D/F#" (dB) B2 | %38
w: God a- bove? *|If the Bi- ble tells|* you so *|Now do|you * be- lieve * in|
w: rol- in' stone *|But that's not how it|used to be *|When the|jes- ter sang for * the|
w: out shel- ter- *|Eigh miles high and fall-|* ing fast. *||It * lan- ded * foul|
w: lost in space *|With no time left to|start a- gain *|So come|on: Jack be nim- ble, *|
"Em" d d2 e- e2 B2 |"Am7" dA z2 z d2 c |"C" B A2 c- c2 B2 |"Em" z G2 E G2 E2 |"A7" G E2 G- G2 z2 | %43
w: rock and roll. * Can|mu- sic save you|mor- tal soul * and|can you teach me|how to dance *|
w: king and queen, * In|a coat he bor|rowed from James * Dean|And a voice that|came from you *|
w: on the grass. * The|play ers tried for|a forward pass, * With|the jes- ter on|the side- lines *|
w: Jack be quick * Jack|flash * sat on|a can- dle stick Cause|fi- re is the|dev- ils on- ly|
"D" B4 (B3 c/B/ | A/B/) z z2 z B c2 |"Em" e2 BB- B B3 |"D" c2 Bd- dc B2 |"Em" B e2 B B2 B2 | %48
w: real slow? * *|* * Well, I|know that you're * in|love with him * 'cause I|* saw you danc- in'|
w: and me, * *|* * Oh, and|while the king * was|look ing down, * * The|jes- ter * stole his|
w: in a cast. *|* * Now the|half- time air * was|sweet per- fume * * While|the sar- gents played a|
w: on- ly friend, *|* * Oh, and|as I watched * him|on the stage * My hands|were clenched in fists of|
"D" c2 Bd- d2 z B |"C" c2 B2"G" (AG)G(B |"A7" B A3) z g g2 |"C" g2 g2 gg a2 | %52
w: in the gym, * You|both kicked off * your shoes|* * Man, I|dig those rhy- thm and|
w: thor ny crown, * The|court room was * a journed|* * * No|ver- dict was * re-|
w: mar- ching- tune. * We|al got up * * *|to dance. Oh, but|we ne- ver got the|
w: rage. * * * No|an- gel born * in hell|* * Could *|break that sa- tans *|
"D7" (f d2 d'- d')bge |"G" (ge)e"D/F#"d- d(d B2) |"Em" d2 de- e2 BB |"Am" A2 Bc- cBcB | %56
w: blues. * * * I was a|lone- * y tee * age *|bronc- in' buck * with a|pink car- na- * tion and a|
w: turned. * * * And while *|Len- * on read * a *|book of Marx * * *|The quar- tet * prac- * ticed|
w: chance! * * * 'cause * the|play- * ers tried * to *|take the field * The mar|The mar- ching * band * *|
w: spell. * * * And as the|flames * chimbed high * in- *|to the night * To *|light the sa- * cra- * *|
"C" d B2 A B2 z B |"G" B2 g2"D/F#" (ed)(dd- |"Em" d)edB- B2 GG- |"C" G2 z2 z2 Bc- | %60
w: pick- up truck. * But|I knew I * was out|* * of luck * the day|* the mu-|
w: in the park * And|we sang dir- ges in the|* * dark * * the day|* the mu-|
w: re- fused to yield. Do|you re- call * what was|* rev- ealed * * the day|* the mu-|
w: fi- cial rite, * I|saw Sa- tan * laugh- ing|* with de- light * the day|* the mu-|
"D7" c4- c B2 G- |"G" G4"C" z4 |1,2,3"G" z ddd"D7" e d3 :|4"G" z2 dd"D7" e d3 ||"G" d4"C" c2 cB | %65
w: * * sic died.||I start- ed sing- ing|He was sing- in'|bye bye, Miss A-|
w: * * sic died.||We were * sing- in'|||
w: * * sic died.||We start- ed sing- in'|||
w: * * sic died.|||||
"G" BAG"D"A- A d2 d |"G" dddc"C" cccB |"G" BAGD-"D" D2 z d |"G" d d2 c-"C" cccB | %69
w: mer- i- can Pie * Drove my|Chev- y to the lev- ee but the|lev- ee was dry. * Them|good ole boys * were drink- in'|
w: ||||
w: ||||
w: ||||
"G" BAGA-"D" A z BA |"Em" GE GE/G/- GF/E/- E2 |"A7" A2 z2 z4 |"Em" GE GE/G/- GF/E/- E2 | %73
w: whis- key and rye * Sing- in'|this- 'll be the day * that I *|die,|This- 'll be the day * that I *|
w: ||||
w: ||||
w: ||||
"D7" (F/E/D- D6) | z8 x8 ||"G" z/ d/d/d/"D/F#" dd"Em" (d/c/)B/(B/- B/A)A/ | %76
w: die. * * *||I met a girl who sang * the blues * * and|
w: |||
w: |||
w: |||
"Am" Ac/B/ cB"C" c/B/(G/A/- A>)F |"Em" G/G/G- GF"D" GF D2- | D2 z2 z4 | %79
w: I asked he for some hap- py news, * * But|she just smiled * and turned a- way.||
w: |||
w: |||
w: |||
"G" dd"D/F#" dd/B/"Em" d/e/(B/A/"G" G)G/G/ |"Am" AB"G/B"cB"C" A/B/ c2 B/A/ | %81
w: I went down to the sa- cred store * * where I|heard the mus- ic years be- fore But the|
w: ||
w: ||
w: ||
"Em" G E2 G/E/"C" G E2 G/E/ |"D" (Bc/B/ A4) z A |"Em" BBBB"Am" cB (A/B)E/ | %84
w: man there said the mus- sic would- n't|play. * * * An|in the streets the chil- dren screamed, * the|
w: |||
w: |||
w: |||
"Em" B/BB/- BB/B/"Am" c/B/(G/A/- A>)C |"C" GG"G/B" G>F"Am" EG z3/2 E/ |"C" GABe"D" d B2 d/d/ | %87
w: lov- ers cried * and the po- ets dreamed. * * but|not a word was spo- ken the|church bells all were bro- ken. And the|
w: |||
w: |||
w: |||
"G" dd"D/F#"dd"Em" d2"G/B" B>G |"C" AB c/BB/"D7" AB d>c |"G" BB"D/F#"BB"Em" BB D>G | %90
w: three men I ad- mire most, the|Fa- ther, Son and the Ho- ly Ghost, They|caught the last train for the coast the|
w: |||
w: |||
w: |||
"C" E3 B"Am7" c2"D7" B2 |"G" G8 | z D dd"D7" e d3!D.S.! || z8 x8 ||O"C" cB AG/F/-"D7" FE/F/- FG- | %95
w: day the mus- ic|died.|and they were sing- in'||This- 'll be the day * that I * die.|
w: |||||
w: |||||
w: |||||
"G" G2-"C" G2-"G" !fermata!G4 |] %96
w: |
w: |
w: |
w: |

